X: 1
T: Maggie in the Wood
T: the Piper's Cave
Z: 2003 John Chambers <jc:trillian.mit.edu>
R: march
M: 4/4
L: 1/4
K: A
[| "A"AE A>B | "F#m"cf f2 | "A"ec      c/B/A/B/ | "E7"cB B2 \
|  "A"AE A>B | "F#m"cf f2 | "A"ec  "E7"Bc/B/    |  "A"A3 |]
[| "A"a>g fe |   "D"fg a2 | "A"ec "F#m"c/B/A/B/ | "Bm"cB "E7"B2 \
|  "A"a>g fe |   "D"fg a2 | "A"ec  "E7"Bc/B/    |  "A"A3 |]
